**kern	**text	**kern	**text	**kern	**text	**kern	**text	**kern	**text	**cdata-harm
*staff5	*staff5	*staff4	*staff4	*staff3	*staff3	*staff2	*staff2	*staff1	*staff1	*
=1-	=1-	=1-	=1-	=1-	=1-	=1-	=1-	=1-	=1-	=1-
*clefF4	*	*clefGv2	*	*clefGv2	*	*clefG2	*	*clefG2	*	*
*k[]	*	*k[]	*	*k[]	*	*k[]	*	*k[]	*	*
*M4/4	*	*M4/4	*	*M4/4	*	*M4/4	*	*M4/4	*	*
1r	.	1r	.	1r	.	1d/	Tra	2r	.	<HOM_2v
.	.	.	.	.	.	.	.	2dd\	Tra	.
=2	=2	=2	=2	=2	=2	=2	=2	=2	=2	.
1r	.	1r	.	1r	.	2.e/	mil-	2.b\	mil-	.
.	.	.	.	.	.	4f#/	lee	4a/	lee	.
=3	=3	=3	=3	=3	=3	=3	=3	=3	=3	.
1r	.	1r	.	1r	.	4g/	pi&ugrave;ar-	4b\	pi&ugrave;ar-	.
.	.	.	.	.	.	4d/	bors-	4dd\	bors-	.
.	.	.	.	.	.	2e/	cel-	2cc#\	cel-	.
=4	=4	=4	=4	=4	=4	=4	=4	=4	=4	.
2r	.	1d\	Tra	1r	.	2f#/	li	2dd\	li	>
2G\	Tra	.	.	.	.	2g/	tra	2b\	tra	<HOM_4v_rep
=5	=5	=5	=5	=5	=5	=5	=5	=5	=5	.
2.E\	mil-	2.e\	mil-	1r	.	2.g/	mil-	2.b\	mil-	.
4D\	lee	4f#\	lee	.	.	4a/	lee	4dd\	lee	.
=6	=6	=6	=6	=6	=6	=6	=6	=6	=6	.
4E\	pi&ugrave;ar-	4g\	pi&ugrave;ar-	1r	.	4.g/	pi&ugrave;ar-	4cc\	pi&ugrave;ar-	.
4G\	bors-	4d\	bors-	.	.	.	.	4b\	bors-	.
.	.	.	.	.	.	8g/	bors-	.	.	.
2D\	cel-	2f#\	cel-	.	.	2a/	cel-	[2dd\	cel-	.
=7	=7	=7	=7	=7	=7	=7	=7	=7	=7	.
2G\	li	2g\	li	2r	.	2bn\	li	2dd\]	.	.
2G\	Tra	4r	.	2d\	Tra	2g/	Tra	2b\	li	><HOM_4v_rep+1imit
.	.	4G/	Tra	.	.	.	.	.	.	.
=8	=8	=8	=8	=8	=8	=8	=8	=8	=8	.
2.E\	mil-	2.B\	mil-	2.e\	mil-	2.g/	mil-	1r	.	.
4D\	lee	4d\	lee	4f#\	lee	4a/	lee	.	.	.
=9	=9	=9	=9	=9	=9	=9	=9	=9	=9	.
4C/	pi&ugrave;ar-	4e\	pi&ugrave;ar-	4g\	pi&ugrave;ar-	4cc\	pi&ugrave;ar-	2r	.	.
4E\	bors	4B\	bors	4e\	bors-	4g/	bors-	.	.	.
2D\	cel-	[2d\	cel-	2f#\	cel-	2a/	cel-	[2dd\	un	.
=10	=10	=10	=10	=10	=10	=10	=10	=10	=10	.
2G\	li	2d\]	.	2g\	liun	2b\	li	2dd\]	.	.
[2C/	dol-	2c\	li	[2g\	dol-	4r	.	[2ee\	dol-	.
.	.	.	.	.	.	4cc\	un	.	.	.
=11	=11	=11	=11	=11	=11	=11	=11	=11	=11	.
2C/]	.	2c\	dol-	2g\]	.	2.g/	dol-	2ee\]	.	.
2BB/	ceAl-	2d\	ceAl-	2g\	ceAl-	.	.	2dd\	ceAl-	.
.	.	.	.	.	.	4f/	ceAl-	.	.	.
=12	=12	=12	=12	=12	=12	=12	=12	=12	=12	.
1C/	lo-	1e\	lo-	1g\	lo-	2e/	lo-	1cc\	lo-	.
.	.	.	.	.	.	2c/	ro	.	.	.
=13	=13	=13	=13	=13	=13	=13	=13	=13	=13	.
1G\	ro	1d\	ro	1g\	ro	1r	.	1b\	ro	>
=14	=14	=14	=14	=14	=14	=14	=14	=14	=14	.
2r	.	2r	.	2r	.	2r	.	2r	.	.
2C/	Ap-	2c\	Ap-	2g\	Ap-	2cc\	Ap-	2ee\	Ap-	<HOM_5v
=15	=15	=15	=15	=15	=15	=15	=15	=15	=15	.
[1C/	par-	[1c\	par-	[1g\	par-	[1cc\	par-	1ee\	par-	.
=16	=16	=16	=16	=16	=16	=16	=16	=16	=16	.
2C/]	.	2c\]	.	2g\]	.	2cc\]	.	2ee\	ve&agrave;	.
2F\	ve&agrave;	2c\	ve&agrave;	2a\	ve&agrave;	2cc\	ve&agrave;	[2ff\	glio-	.
=17	=17	=17	=17	=17	=17	=17	=17	=17	=17	.
2.A\	glio-	1c\	glio-	2a\	glio-	2cc\	glio-	4ff\]	.	.
.	.	.	.	.	.	.	.	4ee\	chi	.
.	.	.	.	2a\	chi	2cc\	chi	[2ee\	mie-	.
4A\	chi	.	.	.	.	.	.	.	.	.
=18	=18	=18	=18	=18	=18	=18	=18	=18	=18	.
1D\	mie-	2d\	chi	1f\	mie-	1a/	mie-	4ee\]	.	.
.	.	.	.	.	.	.	.	8dd\L	.	.
.	.	.	.	.	.	.	.	8cc\J	.	.
.	.	[2d\	mie-	.	.	.	.	2dd\	.	.
=19	=19	=19	=19	=19	=19	=19	=19	=19	=19	.
1A\	i	4d\]	.	1e\	i	1a/	i	1ee\	i	>
.	.	8c\L	.	.	.	.	.	.	.	.
.	.	8B\J	.	.	.	.	.	.	.	.
.	.	2c\	.	.	.	.	.	.	.	.
=20	=20	=20	=20	=20	=20	=20	=20	=20	=20	.
2G\	Di	4d\	i	4r	.	1r	.	1r	.	<HOM_3v
.	.	4d\	Di	4B\	Di	.	.	.	.	.
4G\	cui	4d\	cui	4B\	cui	.	.	.	.	.
4G\	por-	4e\	por-	4B\	por-	.	.	.	.	.
=21	=21	=21	=21	=21	=21	=21	=21	=21	=21	.
2A\	tai	2f#\	tai	2c\	tai	1r	.	1r	.	.
2B\	gran	2g\	gran	2d\	gran	.	.	.	.	.
=22	=22	=22	=22	=22	=22	=22	=22	=22	=22	.
2c\	tem-	2g\	tem-	2e\	tem-	1r	.	1r	.	.
2A\	poil	2a\	poil	2c\	poil	.	.	.	.	.
=23	=23	=23	=23	=23	=23	=23	=23	=23	=23	.
4G\	ca-	4d\	ca-	4B\	ca-	1r	.	1r	.	.
4B-\	poa-	4d\	poa-	4d\	poa-	.	.	.	.	.
2A\	dor-	2e\	dor-	2c#\	dor-	.	.	.	.	.
=24	=24	=24	=24	=24	=24	=24	=24	=24	=24	.
2D\	no	4f#\	no	4d\	no	2a/	Di	2dd\	Di	><HOM_4v_rep
.	.	4f#\	Di	4d\	Di	.	.	.	.	.
2r	.	4g\	cui	4G/	cui	4b\	cui	4dd\	cui	.
.	.	4g\	por-	4G/	por-	4b\	por-	4dd\	por-	.
=25	=25	=25	=25	=25	=25	=25	=25	=25	=25	.
1r	.	2g\	tai	2c\	tai	2cc\	tai	2ee\	tai	.
.	.	2a\	gran	2A/	gran	2cc\	gran	2ff#\	gran	.
=26	=26	=26	=26	=26	=26	=26	=26	=26	=26	.
1r	.	4d\	tem-	2G/	tem-	2b\	tem-	2gg\	tem-	.
.	.	[4g\	.	.	.	.	.	.	.	.
.	.	8g\L]	.	2c\	poil	2cc\	poil	2ee\	poil	.
.	.	8f\J	.	.	.	.	.	.	.	.
.	.	4e\	poil	.	.	.	.	.	.	.
=27	=27	=27	=27	=27	=27	=27	=27	=27	=27	.
1r	.	4f\	ca-	4F/	ca-	4a/	ca-	4cc\	ca-	.
.	.	4c\	poa-	4A/	poa-	4e/	poa-	4cc\	poa-	.
.	.	2d\	dor-	2G/	dor-	2g/	dor-	2b\	dor-	.
=28	=28	=28	=28	=28	=28	=28	=28	=28	=28	.
2r	.	2e\	no	2c\	no	2g/	no	1cc\	no	>
[2C/	Hor	2r	.	2r	.	4r	.	.	.	<CONlib_4v
.	.	.	.	.	.	[4g/	Hor	.	.	.
=29	=29	=29	=29	=29	=29	=29	=29	=29	=29	.
2C/]	.	4r	.	2e\	Hor	4g/]	.	1r	.	.
.	.	4G/	Hor	.	.	2cc\	co-	.	.	.
[2F\	co-	[2A/	co-	[2f\	co-	.	.	.	.	.
.	.	.	.	.	.	4a/	me	.	.	.
=30	=30	=30	=30	=30	=30	=30	=30	=30	=30	.
4F\]	.	4A/]	.	4f\]	.	2cc\	mai	1r	.	.
4E\	me	4G/	me	4g\	me	.	.	.	.	.
4F\	mai	4A/	mai	4f\	mai	4a/	pu&ograve;A-	.	.	.
4G\	pu&agrave;A-	4B\	pu&ograve;A-	4d\	pu&ograve;A-	[4g/	mo-	.	.	.
=31	=31	=31	=31	=31	=31	=31	=31	=31	=31	.
1A\	mo-	4c\	mo-	2.c\	mo-	4g/]	.	1r	.	.
.	.	4A/	.	.	.	8f/L	.	.	.	.
.	.	.	.	.	.	8e/J	.	.	.	.
.	.	[2c\	.	.	.	2f/	.	.	.	.
.	.	.	.	4d\	.	.	.	.	.	.
=32	=32	=32	=32	=32	=32	=32	=32	=32	=32	.
1G\	re	2c\]	.	2e\	.	2g/	re	2r	.	>
.	.	2B\	re	4d\	re	4r	.	[2dd\	Hor	<CON_2v+1doub
.	.	.	.	4d\	Hor	4g/	Hor	.	.	.
=33	=33	=33	=33	=33	=33	=33	=33	=33	=33	.
1r	.	1r	.	2.g\	co-	2.b\	co-	2dd\]	.	.
.	.	.	.	.	.	.	.	[2ee\	co-	.
.	.	.	.	4a\	me	4cc\	me	.	.	.
=34	=34	=34	=34	=34	=34	=34	=34	=34	=34	.
1r	.	1r	.	4g\	mai	4b\	mai	4ee\]	.	.
.	.	.	.	4f\	pu&ograve;A-	4a/	pu&ograve;A-	4ff\	me	.
.	.	.	.	[2g\	mo-	2b\	mo-	4ee\	mai	.
.	.	.	.	.	.	.	.	4dd\	pu&ograve;A-	.
=35	=35	=35	=35	=35	=35	=35	=35	=35	=35	.
2r	.	1c\	Or-	2g\]	.	2e/	re	1cc\	mo-	><CONlib_3v+2doub
[2c\	Or-	.	.	2e\	re	2g/	Or-	.	.	.
=36	=36	=36	=36	=36	=36	=36	=36	=36	=36	.
4c\]	.	2.G/	nar	2r	.	[1g/	nar	2dd\	re	.
8B\L	.	.	.	.	.	.	.	.	.	.
8A\J	.	.	.	.	.	.	.	.	.	.
2B\	.	.	.	2d\	Or-	.	.	[2gg\	Or-	.
.	.	4G/	al-	.	.	.	.	.	.	.
=37	=37	=37	=37	=37	=37	=37	=37	=37	=37	.
2c\	nar	[1c\	trui	2.e\	nar	2g/]	.	2gg\]	.	.
2C/	altru-	.	.	.	.	2cc\	al-	2ee\	nar	.
.	.	.	.	4e\	al-	.	.	.	.	.
=38	=38	=38	=38	=38	=38	=38	=38	=38	=38	.
4F\	.	2c\]	.	4A/	tru-	[1cc\	trui	1ff\	al-	.
4G\	.	.	.	4B\	.	.	.	.	.	.
4A\	.	2c\	di	4c\	.	.	.	.	.	.
4B\	.	.	.	4d\	.	.	.	.	.	.
=39	=39	=39	=39	=39	=39	=39	=39	=39	=39	.
2c\	i	2A/	co-	2e\	i	2cc\]	.	2ee\	trui	.
[2F\	di	2c\	si	[2A/	di	[2a/	di	[2ff\	di	.
=40	=40	=40	=40	=40	=40	=40	=40	=40	=40	.
4F\]	.	1c\	bel	2A/]	.	4a/]	.	2ff\]	.	.
4F\	co-	.	.	.	.	4a/	co-	.	.	.
2C/	si	.	.	2e\	co-	2g/	si	[2ee\	co-	.
=41	=41	=41	=41	=41	=41	=41	=41	=41	=41	.
1D\	bel	1A/	te-	1f\	si	2f/	bel	4ee\]	.	.
.	.	.	.	.	.	.	.	4dd\	si	.
.	.	.	.	.	.	2a/	te-	2dd\	bel	.
=42	=42	=42	=42	=42	=42	=42	=42	=42	=42	.
1AA/	te-	[1A/	so-	2e\	bel	[1a/	so-	2cc#\	te-	.
.	.	.	.	2f\	te-	.	.	[2dd\	so-	.
=43	=43	=43	=43	=43	=43	=43	=43	=43	=43	.
1AA/	so-	1A/]	.	1e\	so-	1a/]	.	4dd\]	.	.
.	.	.	.	.	.	.	.	8cc\L	.	.
.	.	.	.	.	.	.	.	8b\J	.	.
.	.	.	.	.	.	.	.	2cc#\	.	.
=44	=44	=44	=44	=44	=44	=44	=44	=44	=44	.
1D\	ro?	1A/	ro?	1d\	ro?	2f#/	ro?	1dd\	ro?	>
.	.	.	.	.	.	2a/	Ben	.	.	<CON_4v+2doub
=45	=45	=45	=45	=45	=45	=45	=45	=45	=45	.
1r	.	2e\	Ben	1r	.	4.g/	mos-	1r	.	.
.	.	.	.	.	.	8g/	tri	.	.	.
.	.	4.d\	mos-	.	.	4b-\	che	.	.	.
.	.	.	.	.	.	4b-\	tu	.	.	.
.	.	8d\	tri	.	.	.	.	.	.	.
=46	=46	=46	=46	=46	=46	=46	=46	=46	=46	.
2r	.	4f\	che	2r	.	1a/	se-	1r	.	.
.	.	4f\	tu	.	.	.	.	.	.	.
2A\	Ben	2e\	se-	2c\	Ben	.	.	.	.	.
=47	=47	=47	=47	=47	=47	=47	=47	=47	=47	.
4.G\	mos-	2g\	i.	4.B\	mos-	2d/	i.	2r	.	.
8G\	tri	.	.	8B\	tri	.	.	.	.	.
4B-\	che	2r	.	4d\	che	4r	.	2dd\	Ben	.
4B-\	tu	.	.	4d\	tu	4f/	Ben	.	.	.
=48	=48	=48	=48	=48	=48	=48	=48	=48	=48	.
2A\	se-	1r	.	2e\	sei.	4.a/	mos-	4.cc\	mos-	.
.	.	.	.	.	.	8a/	tri	8cc\	tri	.
2G\	i.	.	.	2g\	Fan-	4b-\	che	4dd\	che	<<CON_5v
.	.	.	.	.	.	4b-\	tu	4ee\	tu	.
=49	=49	=49	=49	=49	=49	=49	=49	=49	=49	.
4r	.	2F/	Fan-	2.c\	ciul	2a/	se-	2ff\	se-	.
4F\	Fan-	.	.	.	.	.	.	.	.	.
[2C/	ciul	[2c\	ciul	.	.	4g/	i.	2ee\	i.	>
.	.	.	.	[4G/	ch'in	4g/	Fan-	.	.	.
=50	=50	=50	=50	=50	=50	=50	=50	=50	=50	.
2C/]	.	2c\]	.	4G/]	.	4e/	ciul	4r	.	.
.	.	.	.	4G/	m&egrave;	4e/	ch'in	4gg\	Fan-	.
2C/	ch'in	2G/	ch'in	4c\	.	[2g/	m&egrave;	[2ee\	ciul	.
.	.	.	.	8B\L	.	.	.	.	.	.
.	.	.	.	8c\J	.	.	.	.	.	.
=51	=51	=51	=51	=51	=51	=51	=51	=51	=51	.
2.E\	m&egrave;	2G/	m&egrave;	2B\	.	2g/]	.	4ee\]	.	.
.	.	.	.	.	.	.	.	4ee\	ch'in	.
.	.	4G/	d'un	2c\	d'un	2g/	d'un	4ee\	m&egrave;	.
4C/	d'un	[4c\	gior-	.	.	.	.	4ee\	d'un	.
=52	=52	=52	=52	=52	=52	=52	=52	=52	=52	.
1G\	gior-	4c\]	.	1d\	gior-	1g/	gior-	1dd\	gior-	.
.	.	8B/L	.	.	.	.	.	.	.	.
.	.	8A/J	.	.	.	.	.	.	.	.
.	.	2B\	.	.	.	.	.	.	.	.
=53	=53	=53	=53	=53	=53	=53	=53	=53	=53	.
[1C/	no	1c\	no	[1e\	no	1g/	no	2cc\	no	>
.	.	.	.	.	.	.	.	2g/	Po-	<ANTIF_2v
=54	=54	=54	=54	=54	=54	=54	=54	=54	=54	.
1C/]	.	2r	.	1e\]	.	2r	.	4cc\	co	.
.	.	.	.	.	.	.	.	4dd\	cu-	.
.	.	2c\	Po-	.	.	2e/	Po-	4ee\	ran-	.
.	.	.	.	.	.	.	.	4ff\	do	.
=55	=55	=55	=55	=55	=55	=55	=55	=55	=55	.
1r	.	4c\	co	1r	.	4e/	co	2.gg\	ho-	.
.	.	4d\	cu-	.	.	4f/	cu-	.	.	.
.	.	4e\	ran-	.	.	4g/	ran-	.	.	.
.	.	4f\	do	.	.	4a/	do	4ff\	no-	.
=56	=56	=56	=56	=56	=56	=56	=56	=56	=56	.
1r	.	2g\	ho-	1r	.	4b\	ho-	2.ee\	.	.
.	.	.	.	.	.	8a/L	no-	.	.	.
.	.	.	.	.	.	8b/J	.	.	.	.
.	.	2a\	nor	.	.	[2cc\	.	.	.	.
.	.	.	.	.	.	.	.	8dd\L	.	.
.	.	.	.	.	.	.	.	8cc\J	.	.
=57	=57	=57	=57	=57	=57	=57	=57	=57	=57	.
1r	.	1r	.	1r	.	4cc\]	.	1dd\	.	.
.	.	.	.	.	.	8b/L	.	.	.	.
.	.	.	.	.	.	8a/J	.	.	.	.
.	.	.	.	.	.	2b\	.	.	.	.
=58	=58	=58	=58	=58	=58	=58	=58	=58	=58	.
1r	.	1r	.	1r	.	1cc\	re	1cc\	re	>
=59	=59	=59	=59	=59	=59	=59	=59	=59	=59	.
2C/	Do-	2G/	Do-	2c\	Do-	2g/	Do-	2ee\	Do-	<HOM_5v
4C/	nie	4G/	nie	4c\	nie	4g/	nie	4ee\	nie	.
4C/	ri-	4G/	ri-	4c\	ri-	4g/	ri-	4ee\	ri-	.
=60	=60	=60	=60	=60	=60	=60	=60	=60	=60	.
2F\	to-	2F/	to-	2c\	to-	2a/	to-	2ff\	to-	.
2C/	glial-	2G/	glial-	2c\	glial-	[2g/	glial-	2ee\	glial-	.
=61	=61	=61	=61	=61	=61	=61	=61	=61	=61	.
1D\	trui	2d\	trui	1A/	trui	4g/]	.	1dd\	trui	>
.	.	.	.	.	.	8f/L	.	.	.	.
.	.	.	.	.	.	8e/J	.	.	.	.
.	.	[2d\	Do-	.	.	2f/	trui	.	.	<HOM_5v_rep
=62	=62	=62	=62	=62	=62	=62	=62	=62	=62	.
2G\	Do-	4d\]	.	2G/	Do-	2g/	Do-	2b\	Do-	.
.	.	4d\	nie	.	.	.	.	.	.	.
4G\	nie	2d\	ri-	4B\	nie	[2g/	nie	4b\	nie	.
4G\	ri-	.	.	4d\	ri-	.	.	4b\	ri-	.
=63	=63	=63	=63	=63	=63	=63	=63	=63	=63	.
2C/	to-	2e\	to-	2c\	to-	4g/]	.	2cc\	to-	.
.	.	.	.	.	.	4g/	ri-	.	.	.
2D\	glial-	[2d\	glial-	2F/	glial-	2f/	to-	2a/	glial-	.
=64	=64	=64	=64	=64	=64	=64	=64	=64	=64	.
1AA/	trui	4d\]	.	2A/	trui	2e/	glial	[1a/	trui	.
.	.	8c#\L	.	.	.	.	.	.	.	.
.	.	8B\J	.	.	.	.	.	.	.	.
.	.	2c#\	.	[2A/	gio-	2e/	tru-	.	.	.
=65	=65	=65	=65	=65	=65	=65	=65	=65	=65	.
4D\	gio-	1d\	trui	4A/]	.	1f/	i	2a/]	.	><CONlib_5v
4E\	.	.	.	4G/	.	.	.	.	.	.
4F\	.	.	.	4A/	.	.	.	[2a/	gio-	.
4G\	.	.	.	4B\	.	.	.	.	.	.
=66	=66	=66	=66	=66	=66	=66	=66	=66	=66	.
[1A\	.	2.c\	gio-	4c\	.	[1e/	gio-	4a/]	.	.
.	.	.	.	4d\	.	.	.	4b\	.	.
.	.	.	.	[2e\	.	.	.	4cc\	.	.
.	.	4B\	.	.	.	.	.	4dd\	.	.
=67	=67	=67	=67	=67	=67	=67	=67	=67	=67	.
1A\]	.	4A/	.	4e\]	.	2e/]	.	2ee\	.	.
.	.	4B\	.	4d\	.	.	.	.	.	.
.	.	4c\	.	2e\	.	[2a/	iae	[2ee\	iae	.
.	.	4d\	.	.	.	.	.	.	.	.
=68	=68	=68	=68	=68	=68	=68	=68	=68	=68	.
1F\	iae	4c\	.	[1f\	iae	2a/]	.	2ee\]	.	.
.	.	4B\	.	.	.	.	.	.	.	.
.	.	2A/	.	.	.	2a/	do-	[2dd\	do-	.
=69	=69	=69	=69	=69	=69	=69	=69	=69	=69	.
1G\	do-	2B\	iae	2f\]	.	[1g/	lo-	2dd\]	.	.
.	.	2c\	do-	2e\	do-	.	.	[2cc\	lo-	.
=70	=70	=70	=70	=70	=70	=70	=70	=70	=70	.
1G\	lo-	2d\	lo-	1d\	lo-	1g/]	.	4cc\]	.	.
.	.	.	.	.	.	.	.	8b/L	.	.
.	.	.	.	.	.	.	.	8a/J	.	.
.	.	2G/	re	.	.	.	.	2b\	.	.
=71	=71	=71	=71	=71	=71	=71	=71	=71	=71	.
2C/	re	1r	.	2e\	re	2g/	re	2cc\	re	>
2r	.	.	.	2r	.	2r	.	2r	.	<HOM_5v_rep
=72	=72	=72	=72	=72	=72	=72	=72	=72	=72	.
2C/	Do-	2c\	Do-	2g\	Do-	2cc\	Do-	2ee\	Do-	.
4C/	nie	4c\	nie	4g\	nie	4cc\	nie	4ee\	nie	.
4C/	ri-	4c\	ri-	4g\	ri-	4cc\	ri-	4ee\	ri-	.
=73	=73	=73	=73	=73	=73	=73	=73	=73	=73	.
2F\	to-	2.c\	to-	2f\	to-	2a/	to-	2ff\	to-	.
2C/	glial-	.	.	2g\	glial	2cc\	glial-	2ee\	glial-	.
.	.	8d\L	.	.	.	.	.	.	.	.
.	.	8e\J	.	.	.	.	.	.	.	.
=74	=74	=74	=74	=74	=74	=74	=74	=74	=74	.
1D\	trui	2f\	.	2f\	trui	[1a/	trui	1dd\	trui	>
.	.	2d\	glial-	[2f\	gio-	.	.	.	.	<CONlib_5v_rep
=75	=75	=75	=75	=75	=75	=75	=75	=75	=75	.
4F\	gio-	1A/	trui	2f\]	.	2a/]	.	4cc\	gio-	.
4G\	.	.	.	.	.	.	.	4b\	.	.
4A\	.	.	.	[2e\	.	[2cc\	gio-	4cc\	.	.
4B\	.	.	.	.	.	.	.	4dd\	.	.
=76	=76	=76	=76	=76	=76	=76	=76	=76	=76	.
1c\	.	1r	.	4e\]	.	4cc\]	.	4ee\	.	.
.	.	.	.	4d\	.	8b/L	.	4ff\	.	.
.	.	.	.	.	.	8a/J	.	.	.	.
.	.	.	.	4e\	.	4g/	.	[2gg\	.	.
.	.	.	.	4f\	.	4a/	.	.	.	.
=77	=77	=77	=77	=77	=77	=77	=77	=77	=77	.
1G\	ioae	4d\	gio-	2g\	.	4b-\	.	2gg\]	.	.
.	.	4c\	.	.	.	4a/	.	.	.	.
.	.	4d\	.	[2g\	iae	2b-\	.	[2dd\	iae	.
.	.	4e\	.	.	.	.	.	.	.	.
=78	=78	=78	=78	=78	=78	=78	=78	=78	=78	.
1D\	do-	1d\	.	2g\]	.	2b\	.	2dd\]	.	.
.	.	.	.	2f\	do-	2a/	iae	2dd\	do-	.
=79	=79	=79	=79	=79	=79	=79	=79	=79	=79	.
[1D\	lo-	2A/	giae	[1d\	lo-	2f#/	do-	[1dd\	lo-	.
.	.	2B-\	do-	.	.	[2g/	lo-	.	.	.
=80	=80	=80	=80	=80	=80	=80	=80	=80	=80	.
1D\]	.	1A/	lo-	1d\]	.	4g/]	.	1dd\]	.	.
.	.	.	.	.	.	8f/L	.	.	.	.
.	.	.	.	.	.	8e/J	.	.	.	.
.	.	.	.	.	.	2f/	.	.	.	.
=81	=81	=81	=81	=81	=81	=81	=81	=81	=81	.
1G\	re.	1G/	re.	1d\	re.	1g/	re.	1b\	re.	>
==	==	==	==	==	==	==	==	==	==	==
*-	*-	*-	*-	*-	*-	*-	*-	*-	*-	*-